X:0517
M:9/8
L:1/8
Q:3/8=120
K:D
f| d2d     (f/g/a).f  afd|(f/g/a).f bge e2 \
f| d2d     (f/g/a)f   afd|(f/g/a)f  afd d2
f| d2d     (f/g/a).f  afd|(f/g/a).f bge e2 \
f| dAd      fed       cBA|(B/c/d).B AFD D2:|

